icon-themes/breeze_svg/cmd/sc_sharedocument.svg

<svg viewBox="0 0 16 16" xmlns="http://www.w3.org/2000/svg"><path d="m11.5 2c-.828427 0-1.5.6715728-1.5 1.5s.671573 1.5 1.5 1.5 1.5-.6715728 1.5-1.5-.671573-1.5-1.5-1.5zm-3 3c-.2761424 0-.5.2238576-.5.5s.2238576.5.5.5.5-.2238576.5-.5-.2238576-.5-.5-.5zm-2 1c-.2761424 0-.5.2238576-.5.5s.2238576.5.5.5.5-.2238576.5-.5-.2238576-.5-.5-.5zm-3 1c-.8284271 0-1.5.6715728-1.5 1.5s.6715729 1.5 1.5 1.5 1.5-.6715728 1.5-1.5-.6715729-1.5-1.5-1.5zm3 3c-.2761424 0-.5.223858-.5.5s.2238576.5.5.5.5-.223858.5-.5-.2238576-.5-.5-.5zm2 1c-.2761424 0-.5.223858-.5.5s.2238576.5.5.5.5-.223858.5-.5-.2238576-.5-.5-.5zm3 0c-.828427 0-1.5.671573-1.5 1.5s.671573 1.5 1.5 1.5 1.5-.671573 1.5-1.5-.671573-1.5-1.5-1.5z" fill="#4d4d4d"/></svg>

<svg viewBox="0 0 16 16" xmlns="http://www.w3.org/2000/svg">
  <path
     style="fill:#4d4d4d"
     d="M 11.5,2 C 10.671573,2 10,2.6715728 10,3.5 10,4.3284272 10.671573,5 11.5,5 12.328427,5 13,4.3284272 13,3.5 13,2.6715728 12.328427,2 11.5,2 Z m -3,3 C 8.2238576,5 8,5.2238576 8,5.5 8,5.7761424 8.2238576,6 8.5,6 8.7761424,6 9,5.7761424 9,5.5 9,5.2238576 8.7761424,5 8.5,5 Z m -2,1 C 6.2238576,6 6,6.2238576 6,6.5 6,6.7761424 6.2238576,7 6.5,7 6.7761424,7 7,6.7761424 7,6.5 7,6.2238576 6.7761424,6 6.5,6 Z m -3,1 C 2.6715729,7 2,7.6715728 2,8.5 2,9.3284272 2.6715729,10 3.5,10 4.3284271,10 5,9.3284272 5,8.5 5,7.6715728 4.3284271,7 3.5,7 Z m 3,3 C 6.2238576,10 6,10.223858 6,10.5 6,10.776142 6.2238576,11 6.5,11 6.7761424,11 7,10.776142 7,10.5 7,10.223858 6.7761424,10 6.5,10 Z m 2,1 C 8.2238576,11 8,11.223858 8,11.5 8,11.776142 8.2238576,12 8.5,12 8.7761424,12 9,11.776142 9,11.5 9,11.223858 8.7761424,11 8.5,11 Z m 3,0 C 10.671573,11 10,11.671573 10,12.5 10,13.328427 10.671573,14 11.5,14 12.328427,14 13,13.328427 13,12.5 13,11.671573 12.328427,11 11.5,11 Z"
     />
</svg>
